polaris-icons/icons/new-icons/KeyboardMajor.svg

<svg width="20" height="20" viewBox="0 0 20 20" fill="none" xmlns="http://www.w3.org/2000/svg">
<path d="M8.75 10.5C8.33579 10.5 8 10.8358 8 11.25C8 11.6642 8.33579 12 8.75 12H11.25C11.6642 12 12 11.6642 12 11.25C12 10.8358 11.6642 10.5 11.25 10.5H8.75Z" fill="#4A4A4A"/>
<path d="M12.5 11.25C12.5 10.8358 12.8358 10.5 13.25 10.5H13.75C14.1642 10.5 14.5 10.8358 14.5 11.25C14.5 11.6642 14.1642 12 13.75 12H13.25C12.8358 12 12.5 11.6642 12.5 11.25Z" fill="#4A4A4A"/>
<path d="M6.25 10.5C5.83579 10.5 5.5 10.8358 5.5 11.25C5.5 11.6642 5.83579 12 6.25 12H6.75C7.16421 12 7.5 11.6642 7.5 11.25C7.5 10.8358 7.16421 10.5 6.75 10.5H6.25Z" fill="#4A4A4A"/>
<path d="M4.5 8.75C4.5 8.33579 4.83579 8 5.25 8H5.75C6.16421 8 6.5 8.33579 6.5 8.75C6.5 9.16421 6.16421 9.5 5.75 9.5H5.25C4.83579 9.5 4.5 9.16421 4.5 8.75Z" fill="#4A4A4A"/>
<path d="M8.25 8C7.83579 8 7.5 8.33579 7.5 8.75C7.5 9.16421 7.83579 9.5 8.25 9.5H8.75C9.16421 9.5 9.5 9.16421 9.5 8.75C9.5 8.33579 9.16421 8 8.75 8H8.25Z" fill="#4A4A4A"/>
<path d="M10.5 8.75C10.5 8.33579 10.8358 8 11.25 8H11.75C12.1642 8 12.5 8.33579 12.5 8.75C12.5 9.16421 12.1642 9.5 11.75 9.5H11.25C10.8358 9.5 10.5 9.16421 10.5 8.75Z" fill="#4A4A4A"/>
<path d="M14.25 8C13.8358 8 13.5 8.33579 13.5 8.75C13.5 9.16421 13.8358 9.5 14.25 9.5H14.75C15.1642 9.5 15.5 9.16421 15.5 8.75C15.5 8.33579 15.1642 8 14.75 8H14.25Z" fill="#4A4A4A"/>
<path fill-rule="evenodd" clip-rule="evenodd" d="M5.25 5.5C3.73122 5.5 2.5 6.73122 2.5 8.25V11.75C2.5 13.2688 3.73122 14.5 5.25 14.5H14.75C16.2688 14.5 17.5 13.2688 17.5 11.75V8.25C17.5 6.73122 16.2688 5.5 14.75 5.5H5.25ZM4 8.25C4 7.55964 4.55964 7 5.25 7H14.75C15.4404 7 16 7.55964 16 8.25V11.75C16 12.4404 15.4404 13 14.75 13H5.25C4.55964 13 4 12.4404 4 11.75V8.25Z" fill="#4A4A4A"/>
</svg>

<svg viewBox="0 0 20 20" xmlns="http://www.w3.org/2000/svg"><path d="M8.75 10.5a.75.75 0 0 0 0 1.5h2.5a.75.75 0 0 0 0-1.5h-2.5Z" fill="#5C5F62"/><path d="M12.5 11.25a.75.75 0 0 1 .75-.75h.5a.75.75 0 0 1 0 1.5h-.5a.75.75 0 0 1-.75-.75Z" fill="#5C5F62"/><path d="M6.25 10.5a.75.75 0 0 0 0 1.5h.5a.75.75 0 0 0 0-1.5h-.5Z" fill="#5C5F62"/><path d="M4.5 8.75a.75.75 0 0 1 .75-.75h.5a.75.75 0 0 1 0 1.5h-.5a.75.75 0 0 1-.75-.75Z" fill="#5C5F62"/><path d="M8.25 8a.75.75 0 0 0 0 1.5h.5a.75.75 0 0 0 0-1.5h-.5Z" fill="#5C5F62"/><path d="M10.5 8.75a.75.75 0 0 1 .75-.75h.5a.75.75 0 0 1 0 1.5h-.5a.75.75 0 0 1-.75-.75Z" fill="#5C5F62"/><path d="M14.25 8a.75.75 0 0 0 0 1.5h.5a.75.75 0 0 0 0-1.5h-.5Z" fill="#5C5F62"/><path fill-rule="evenodd" d="M5.25 5.5a2.75 2.75 0 0 0-2.75 2.75v3.5a2.75 2.75 0 0 0 2.75 2.75h9.5a2.75 2.75 0 0 0 2.75-2.75v-3.5a2.75 2.75 0 0 0-2.75-2.75h-9.5Zm-1.25 2.75c0-.69.56-1.25 1.25-1.25h9.5c.69 0 1.25.56 1.25 1.25v3.5c0 .69-.56 1.25-1.25 1.25h-9.5c-.69 0-1.25-.56-1.25-1.25v-3.5Z" fill="#5C5F62"/></svg>
